X: 13
T: Margate Wash
%R: jig
B: "Twenty Four Country Dances for the Year 1782", Thomas Skillern, ed. p.7 #1
F: http://www.vwml.org/browse/browse-collections-dance-tune-books/browse-skillerns1782#
Z: 2014 John Chambers <jc:trillian.mit.edu>
M: 6/8
L: 1/8
K: D
|:\
f2a gfe | ddd e2d | f2a gfe | ddd d3 ::\
DED F2A | DED F2A | FGF A2d | FGF A2c |
d2f d2f | ecA A3  | B2d B2d | cAF F3 |\
G2G F2F | EFE d2e | fdd d2A | Bdd d2 :|
%%begintext align
%%   Hands across back again Lead
%% down the middle up again Cast
%% off hands Six round and Lead
%% outsides.
%%endtext
